X: 17893
T: Host Of The Air
R: mazurka
M: 3/4
K: Dmajor
A|f4 fe/f/|g4 ga|a>g f>e f<d|d2 e>d c<A|
A2 A>B c<A|de f<d e>d|c<A A2 G>B|A4 A2|
f4 fe/f/|g4 ga|ag fe f<d|d2 e>d c<A|
A2 G>A F<D|D2 =c>d A2|A2 G>E F<D|D6||
G4 GA|BG A4|A>B c<A d2|de f<d e>d|
c<A A2 G>B|A4 A2|f4 fe/f/|g4 ga|
ag fe f<d|d2 e>d c<A|A2 G>A F<D|D2 =c>d A2|
A2 GE F<D|D6|D6|D6||

